X: 1
T: CBC's Glenn And Karl
R: reel
Z: 2020 John Chambers <jc:trillian.mit.edu>
S: https://thesession.org/tunes/14106
M: 4/4
L: 1/8
K: Ador
|: "D"FA~A2 B2AF | "D"ABde f2ef | "D"abaf "Em"e2fe |1 "G"dGGA "A7"Bdef :|2 "G"dB"A7"BA "D"BddA  :|
|: "D"abag f2ef | "G"gBBd "A7"efge | "D"abag "(Bm)"f{g}fed |1 "A7"cAAB cdeg :|2 "G"dB"A7"BA "D"BddA :|
